archdroid-icon-theme/Archdroid-DeepPurple/status/scalable/audio-input-microphone-high-symbolic.svg

<svg xmlns="http://www.w3.org/2000/svg" viewBox="0 0 40 38" fill="#673AB7"><path d="m36 14c2.21 0 4-1.79 4-4 0-2.21-1.79-4-4-4-2.21 0-4 1.79-4 4 0 2.21 1.79 4 4 4m0 4c-2.21 0-4 1.79-4 4 0 2.21 1.79 4 4 4 2.21 0 4-1.79 4-4 0-2.21-1.79-4-4-4m0 12c-2.21 0-4 1.79-4 4 0 2.21 1.79 4 4 4 2.21 0 4-1.79 4-4 0-2.21-1.79-4-4-4m-22-6c3.31 0 5.98-2.69 5.98-6l.02-12c0-3.32-2.68-6-6-6-3.31 0-6 2.68-6 6v12c0 3.31 2.69 6 6 6m10.6-6c0 6-5.07 10.2-10.6 10.2-5.52 0-10.6-4.2-10.6-10.2h-3.4c0 6.83 5.44 12.47 12 13.44v6.56h4v-6.56c6.56-.97 12-6.61 12-13.44h-3.4z"/></svg>

<?xml version="1.0" encoding="UTF-8" standalone="no"?>
<svg
   xmlns:dc="http://purl.org/dc/elements/1.1/"
   xmlns:cc="http://creativecommons.org/ns#"
   xmlns:rdf="http://www.w3.org/1999/02/22-rdf-syntax-ns#"
   xmlns:svg="http://www.w3.org/2000/svg"
   xmlns="http://www.w3.org/2000/svg"
   xmlns:sodipodi="http://sodipodi.sourceforge.net/DTD/sodipodi-0.dtd"
   xmlns:inkscape="http://www.inkscape.org/namespaces/inkscape"
   width="40"
   height="38"
   viewBox="0 0 40 38"
   id="svg2"
   version="1.1"
   inkscape:version="0.91 r13725"
   sodipodi:docname="audio-input-microphone-high-symbolic.svg"
   style="fill:#673AB7">
  <metadata
     id="metadata10">
    <rdf:RDF>
      <cc:Work
         rdf:about="">
        <dc:format>image/svg+xml</dc:format>
        <dc:type
           rdf:resource="http://purl.org/dc/dcmitype/StillImage" />
        <dc:title></dc:title>
      </cc:Work>
    </rdf:RDF>
  </metadata>
  <defs
     id="defs8" />
  <sodipodi:namedview
     pagecolor="#ffffff"
     bordercolor="#666666"
     borderopacity="1"
     objecttolerance="10"
     gridtolerance="10"
     guidetolerance="10"
     inkscape:pageopacity="0"
     inkscape:pageshadow="2"
     inkscape:window-width="1366"
     inkscape:window-height="713"
     id="namedview6"
     showgrid="false"
     inkscape:snap-bbox="true"
     inkscape:bbox-nodes="true"
     inkscape:zoom="5.368001304915686"
     inkscape:cx="25.55777124323898"
     inkscape:cy="22.97544984320463"
     inkscape:window-x="0"
     inkscape:window-y="30"
     inkscape:window-maximized="1"
     inkscape:current-layer="svg2"
     fit-margin-top="0"
     fit-margin-left="0"
     fit-margin-right="0"
     fit-margin-bottom="0" />
  <path
     style="fill:#673AB7"
     inkscape:connector-curvature="0"
     d="m 36,14 c 2.21,0 4,-1.79 4,-4 0,-2.21 -1.79,-4 -4,-4 -2.21,0 -4,1.79 -4,4 0,2.21 1.79,4 4,4 z m 0,4 c -2.21,0 -4,1.79 -4,4 0,2.21 1.79,4 4,4 2.21,0 4,-1.79 4,-4 0,-2.21 -1.79,-4 -4,-4 z m 0,12 c -2.21,0 -4,1.79 -4,4 0,2.21 1.79,4 4,4 2.21,0 4,-1.79 4,-4 0,-2.21 -1.79,-4 -4,-4 z M 14,24 c 3.31,0 5.98,-2.69 5.98,-6 L 20,6 C 20,2.68 17.32,0 14,0 10.69,0 8,2.68 8,6 L 8,18 C 8,21.31 10.69,24 14,24 Z M 24.6,18 C 24.6,24 19.53,28.2 14,28.2 8.48,28.2 3.4,24 3.4,18 L 0,18 c 0,6.83 5.440000000000003,12.47000000000002 12,13.44000000000001 L 12,38 l 4,0 0,-6.56 C 22.56,30.47 28,24.83 28,18 l -3.4,0 z"
     id="path4140" />
</svg>
